svgs/sharp-regular/square-dashed-circle-plus.svg

<svg xmlns="http://www.w3.org/2000/svg" viewBox="0 0 576 512"><!--! Font Awesome Pro 6.6.0 by @fontawesome - https://fontawesome.com License - https://fontawesome.com/license (Commercial License) Copyright 2024 Fonticons, Inc. --><path d="M24 32L0 32 0 56 0 160l48 0 0-80 80 0 0-48L24 32zM0 192L0 320l48 0 0-128L0 192zM0 352L0 456l0 24 24 0 104 0 0-48-80 0 0-80L0 352zM400 80l0 112 48 0 0-136 0-24-24 0L320 32l0 48 80 0zM160 480l96 0 0-48-96 0 0 48zm0-400l128 0 0-48L160 32l0 48zM432 512a144 144 0 1 0 0-288 144 144 0 1 0 0 288zm16-208l0 48 48 0 16 0 0 32-16 0-48 0 0 48 0 16-32 0 0-16 0-48-48 0-16 0 0-32 16 0 48 0 0-48 0-16 32 0 0 16z"/></svg>

<svg xmlns="http://www.w3.org/2000/svg" viewBox="0 0 576 512"><!--! Font Awesome Pro 6.4.2 by @fontawesome - https://fontawesome.com License - https://fontawesome.com/license (Commercial License) Copyright 2023 Fonticons, Inc. --><path d="M24 32H0V56 160H48V80h80V32H24zM0 192V320H48V192H0zM0 352V456v24H24 128V432H48V352H0zM400 80V192h48V56 32H424 320V80h80zM160 480h96V432H160v48zm0-400H288V32H160V80zM432 512a144 144 0 1 0 0-288 144 144 0 1 0 0 288zm16-208v48h48 16v32H496 448v48 16H416V432 384H368 352V352h16 48V304 288h32v16z"/></svg>
